X:817
T:Rob an Lugi
R:Strathspey
B:The Athole Collection
M:C
L:1/8
K:A
e|A/A/A c2 e>a c>A|A/A/A c2 d>=g B=G|A/A/A c2 e>ac>a|=g>a ef g>dB>=G:|
a2 ef/g/ a>ec>A|a2 e>f =g>dB>=G|1 a2 ef/g/ a<e f>d|e>ac>a d=g B>=G:|2
a2 e<=g f>be>g|f>ae>f =g>dB>=G||

